src/status/16/renamed-xnoise.svg

<svg width="16" height="16" viewBox="0 0 4.5156 4.5156" xmlns="http://www.w3.org/2000/svg">
 <path d="m0.353 0.616a0.41 0.409 0 0 0 0.083 0.813h0.231c0.098 0 0.132 0.023 0.205 0.09s0.169 0.192 0.269 0.346c0.08 0.122 0.167 0.262 0.289 0.397-0.119 0.133-0.209 0.275-0.288 0.396-0.101 0.154-0.197 0.273-0.27 0.339-0.073 0.067-0.107 0.09-0.205 0.09h-0.231a0.409 0.408 0 0 0 0 0.813h0.231c0.305 0 0.591-0.15 0.77-0.314s0.291-0.345 0.391-0.499c0.101-0.154 0.182-0.273 0.251-0.339 0.055-0.05 0.087-0.08 0.141-0.09 0.02 1e-3 0.038 0 0.058 0 0.098 0 0.132 0.023 0.205 0.09s0.175 0.186 0.276 0.339c0.101 0.154 0.206 0.335 0.385 0.499s0.445 0.314 0.751 0.314h0.25a0.409 0.408 0 0 0 0-0.813h-0.25c-0.098 0-0.132-0.023-0.205-0.09-0.074-0.066-0.15-0.185-0.251-0.339-0.082-0.125-0.169-0.272-0.295-0.41 0.042-0.045 0.082-0.095 0.115-0.14 0.19-0.256 0.321-0.489 0.43-0.589 0.073-0.066 0.108-0.09 0.205-0.09h0.25a0.409 0.408 0 0 0 0-0.813h-0.25c-0.305 0-0.572 0.15-0.751 0.314-0.269 0.246-0.387 0.527-0.519 0.704s-0.199 0.23-0.346 0.23c-0.098 0-0.126-0.029-0.199-0.096-0.069-0.066-0.15-0.185-0.251-0.339-0.1-0.153-0.212-0.335-0.391-0.499s-0.465-0.314-0.77-0.314h-0.231a0.407 0.406 0 0 0-0.045 0 0.41 0.409 0 0 0-0.038 0z" fill="#2e3440"/>
</svg>

<svg xmlns="http://www.w3.org/2000/svg" width="16" viewBox="0 0 4.5155556 4.5155556" height="16">
 <path d="m 0.353 0.616 a 0.41 0.409 0 0 0 0.083 0.813 l 0.231 0 c 0.098 0 0.132 0.023 0.205 0.09 0.073 0.067 0.169 0.192 0.269 0.346 0.08 0.122 0.167 0.262 0.289 0.397 C 1.311 2.395 1.221 2.537 1.142 2.658 1.041 2.812 0.945 2.931 0.872 2.997 0.799 3.064 0.765 3.087 0.667 3.087 l -0.231 0 a 0.409 0.408 0 0 0 0 0.813 l 0.231 0 c 0.305 0 0.591 -0.15 0.77 -0.314 C 1.616 3.422 1.728 3.241 1.828 3.087 1.929 2.933 2.01 2.814 2.079 2.748 c 0.055 -0.05 0.087 -0.08 0.141 -0.09 0.02 0.001 0.038 0 0.058 0 0.098 0 0.132 0.023 0.205 0.09 0.073 0.067 0.175 0.186 0.276 0.339 0.101 0.154 0.206 0.335 0.385 0.499 0.179 0.164 0.445 0.314 0.751 0.314 l 0.25 0 a 0.409 0.408 0 0 0 0 -0.813 l -0.25 0 c -0.098 0 -0.132 -0.023 -0.205 -0.09 C 3.616 2.931 3.54 2.812 3.439 2.658 3.357 2.533 3.27 2.386 3.144 2.248 3.186 2.203 3.226 2.153 3.259 2.108 3.449 1.852 3.58 1.619 3.689 1.519 3.762 1.453 3.797 1.429 3.894 1.429 l 0.25 0 a 0.409 0.408 0 0 0 0 -0.813 l -0.25 0 c -0.305 0 -0.572 0.15 -0.751 0.314 C 2.874 1.176 2.756 1.457 2.624 1.634 2.492 1.811 2.425 1.864 2.278 1.864 c -0.098 0 -0.126 -0.029 -0.199 -0.096 C 2.01 1.702 1.929 1.583 1.828 1.429 1.728 1.276 1.616 1.094 1.437 0.93 1.258 0.766 0.972 0.616 0.667 0.616 l -0.231 0 a 0.407 0.406 0 0 0 -0.045 0 0.41 0.409 0 0 0 -0.038 0 z" style="fill:#2e3440;fill-opacity:1;color:#000"/>
</svg>
